assets/images/car.svg

<svg xmlns="http://www.w3.org/2000/svg" xml:space="preserve" viewBox="0 0 20 20"><path d="M1 9.8V17c0 .6.4 1 1 1h2c.6 0 1-.4 1-1v-2h10v2c0 .6.4 1 1 1h2c.6 0 1-.4 1-1V9.8c0-.3 0-.5-.1-.8h.6c.3 0 .5-.2.5-.5V8c0-.6-.4-1-1-1h-.8l-.9-2.1c-.2-.5-.7-1-1.2-1.1-1.2-.3-3.4-.8-6.1-.8s-4.9.5-6.1.7c-.6.1-1 .6-1.2 1.1L1.8 7H1c-.6 0-1 .4-1 1v.5c0 .3.2.5.5.5h.6c-.1.3-.1.5-.1.8m2.7-2 .7-1.7c.1-.2.2-.4.4-.4C5.4 5.4 7 5 10 5s4.6.4 5.2.7c.2.1.4.2.4.4l.7 1.7c.1.2 0 .5-.2.6-.8.2-2.5.6-6.1.6s-5.3-.4-6.1-.6c-.2-.1-.3-.4-.2-.6m9.3 3.5q0-.3.3-.3l3.1-.8c.3-.1.6.2.6.5v.3c0 .6-.4 1-1 1h-2.3c-.4 0-.7-.3-.7-.7m-10-.7c0-.3.3-.6.6-.5l3.1.8c.2.1.3.2.3.4 0 .4-.3.7-.7.7H4c-.6 0-1-.4-1-1z" style="fill-rule:evenodd;clip-rule:evenodd"/></svg>

<svg xmlns="http://www.w3.org/2000/svg" xmlns:xlink="http://www.w3.org/1999/xlink" id="Layer_1" x="0" y="0" version="1.1" viewBox="0 0 20 20" style="enable-background:new 0 0 20 20" xml:space="preserve"><style type="text/css">.st0{fill-rule:evenodd;clip-rule:evenodd}</style><path d="M1,9.8V17c0,0.6,0.4,1,1,1h2c0.6,0,1-0.4,1-1v-2h10v2c0,0.6,0.4,1,1,1h2c0.6,0,1-0.4,1-1V9.8	c0-0.3,0-0.5-0.1-0.8h0.6C19.8,9,20,8.8,20,8.5V8c0-0.6-0.4-1-1-1h-0.8l-0.9-2.1c-0.2-0.5-0.7-1-1.2-1.1C14.9,3.5,12.7,3,10,3	C7.3,3,5.1,3.5,3.9,3.7c-0.6,0.1-1,0.6-1.2,1.1L1.8,7H1C0.4,7,0,7.4,0,8v0.5C0,8.8,0.2,9,0.5,9h0.6C1,9.3,1,9.5,1,9.8z M3.7,7.8	l0.7-1.7c0.1-0.2,0.2-0.4,0.4-0.4C5.4,5.4,7,5,10,5c3,0,4.6,0.4,5.2,0.7c0.2,0.1,0.4,0.2,0.4,0.4l0.7,1.7c0.1,0.2,0,0.5-0.2,0.6	C15.3,8.6,13.6,9,10,9C6.4,9,4.7,8.6,3.9,8.4C3.7,8.3,3.6,8,3.7,7.8z M13,11.3c0-0.2,0.1-0.3,0.3-0.3l3.1-0.8	c0.3-0.1,0.6,0.2,0.6,0.5V11c0,0.6-0.4,1-1,1h-2.3C13.3,12,13,11.7,13,11.3z M3,10.6c0-0.3,0.3-0.6,0.6-0.5l3.1,0.8	C6.9,11,7,11.1,7,11.3C7,11.7,6.7,12,6.3,12H4c-0.6,0-1-0.4-1-1V10.6z" class="st0"/></svg>
